svgs/nodevideo.svg

<svg width="24" height="24" viewBox="0 0 24 24" fill="none" xmlns="http://www.w3.org/2000/svg">
<path d="M15.731 11.8458L21.2097 4.58305L17.2453 14.8897L15.1974 19.9653L12.9136 15.644L11.5026 12.9741L7.6352 19.9653H2.79028L9.13553 8.49508L11.2996 4.58305L11.603 4.03473L11.8928 4.58305L13.9701 8.51379L15.731 11.8458Z" fill="black"/>
</svg>

<svg xmlns="http://www.w3.org/2000/svg" width="24" height="24" fill="none" viewBox="0 0 24 24"><path fill="#000" d="m15.731 11.846 5.479-7.263-3.965 10.307-2.048 5.075-2.283-4.321-1.411-2.67-3.868 6.991H2.79l6.346-11.47L11.3 4.583l.303-.548.29.548 2.077 3.93z"/></svg>
